X:1
T: The Game Cock
C:
R:Reel
Q: 232
K:D
M:4/4
L:1/8
|:FA dA BA dA|Bd AF EE EG|FA dA BA dA|Bd AF ((3DDD) D2|
fe dc de fd|ge af ((3eee) eg|fe dc de fe|dB GE ((3DDD) D2|
fe dc de fd|ge af ((3eee) eg|fe dc de fe|dB GE ((3DDD) D2|
fe dc de fe|ge af ((3eee) ea|fa ef de fe|dB AF ((3DDD) D2:|
